X: 25608
T: Marquis Of Lorne, The
R: hornpipe
M: 4/4
K: Gmajor
|:Bc|dBgB dBgB|dBgB d2cB|Ag (3fed A2 g (3fed|A2 g (3fed c2 Bc|
dBgB dBgB|dBgB d2cB|caag f<def|1 g2 g2 g2:|2 g2 g2 g2||
|:(3def|g2 d2 e2 d2|fgab c'2 ba|ggfg efdb|(3aba (3gfe d2 (3def|
g2 d2 e2 d2|fgab c'2 ba|ggfg ecAF|1 (3GBd (3gdB G2:|2 G2 G2 G2||

